src/images/projects/diab/herobg.svg

<svg width="375" height="279" fill="none" xmlns="http://www.w3.org/2000/svg"><g clip-path="url(#clip0)"><path opacity=".3" fill-rule="evenodd" clip-rule="evenodd" d="M-543.952 170.344V46.52h36.712c15.567 0 27.401 5.9 35.952 17.99 8.497 12.013 12.568 26.627 12.568 44.354 0 17.438-4.071 32.058-12.574 43.787-8.552 11.795-20.381 17.693-35.946 17.693h-36.712zm36.712 36.304c27.693 0 49.285-9.123 64.906-27.3 15.657-18.22 23.662-41.591 23.662-70.484 0-28.89-8.004-52.267-23.667-70.778-15.625-18.466-37.218-27.87-64.901-27.87H-584v196.432h76.76zm0 1c27.936 0 49.824-9.216 65.664-27.648 15.84-18.432 23.904-42.048 23.904-71.136 0-29.088-8.064-52.704-23.904-71.424-15.84-18.72-37.728-28.224-65.664-28.224H-585v198.432h77.76zm113.522 0V73.152h39.743v134.496h-39.743zm38.743-1V74.152h-37.743v132.496h37.743zM-373.846 1c-13.343 0-24.056 9.989-24.056 22.328 0 12.355 10.729 22.616 24.056 22.616 13.015 0 23.48-10.24 23.48-22.616 0-12.361-10.449-22.328-23.48-22.328zm181.332 152.504l.102-1.626c.25-3.941.474-7.461.474-10.758 0-21.024-6.624-38.016-19.872-50.976-12.96-13.248-29.376-19.872-48.96-19.872-19.872 0-36.576 6.336-50.112 19.296-13.536 12.96-20.16 29.664-20.16 50.4 0 20.736 6.624 37.728 20.16 50.976 13.536 12.96 30.24 19.584 50.112 19.584 28.078 0 48.336-8.938 60.773-26.539.18-.255.359-.512.536-.771l.035-.05-29.088-19.872c-6.624 8.352-16.416 12.672-29.376 12.672-15.477 0-30.404-7.423-32.961-21.464a22.9 22.9 0 01-.159-1h98.496zm-35.806 11.136c-6.835 8.16-16.742 12.328-29.57 12.328-16.035 0-31.993-7.893-34.111-23.328l-.156-1.136h98.703l.044-.689c.25-3.946.472-7.432.472-10.695 0-20.794-6.543-37.515-19.572-50.261l-.008-.008-.007-.008c-12.759-13.042-28.911-19.571-48.245-19.571-19.638 0-36.087 6.252-49.421 19.018-13.315 12.748-19.851 29.179-19.851 49.678s6.537 37.221 19.855 50.258c13.341 12.771 29.793 19.302 49.417 19.302 27.847 0 47.748-8.848 59.947-26.103l-27.497-18.785zm-63.341-35.192l.247-1.201c3.287-15.986 17.334-23.84 30.934-23.803 13.6.037 27.114 7.978 29.213 23.873l.149 1.131h-60.543zm1.227-1h58.176c-.045-.337-.095-.67-.15-1-4.878-29.204-50.73-29.473-57.804 0-.079.33-.153.663-.222 1zm132.586-54.296h-24.48v29.68h24.48v102.816h37.744V103.832h28.224v-29.68h-28.224V22.6h-37.744v51.552zm38.744-52.552v51.552h28.224v31.68h-28.224v102.816h-39.744V104.832h-24.48v-31.68h24.48V21.6h39.744zM33.779 207.648H-8.269V9.216H33.78v198.432zm-1-197.432H-7.269v196.432H32.78V10.216zm76.922 62.936H69.669v134.496h40.032v-71.136c0-18.144 8.352-27.36 24.768-27.36 14.112 0 23.328 9.504 23.328 26.784v71.712h40.032v-80.352c0-37.728-18.144-57.024-49.248-57.024-15.143 0-30.286 8.16-37.88 20.704a36.25 36.25 0 00-1 1.76V73.152zm87.128 133.496v-79.352c0-18.718-4.502-32.703-12.71-41.998-8.19-9.276-20.199-14.026-35.538-14.026-15.502 0-30.985 8.751-37.997 21.934l-1.883-.47V74.152H70.669v132.496h38.032v-70.136c0-9.207 2.117-16.33 6.487-21.155 4.386-4.844 10.887-7.205 19.281-7.205 7.29 0 13.412 2.462 17.7 7.244 4.277 4.769 6.628 11.729 6.628 20.54v70.712h38.032zm162.62-155.143l22.393 73.623h-43.866l21.473-73.623zm-34.657 108.199h69.93l17.569 46.944h42.222l-72.7-196.432h-44.401l-72.985 196.432h42.796l17.569-46.944zm-16.875 47.944h-44.928L336.717 9.216h45.792l73.44 198.432h-44.352l-17.568-46.944h-68.544l-17.568 46.944zm51.552-152.64l-20.16 69.12h41.184l-21.024-69.12zm280.635 46.038c17.641-7.414 25.536-21.974 25.536-36.534 0-33.696-23.04-55.296-58.752-55.296H527.4v198.432h85.248c19.296 0 34.56-5.76 46.08-17.568 11.52-11.808 17.28-26.208 17.28-43.2 0-9.216-3.168-18.144-9.792-27.072-6.054-8.531-14.738-14.432-26.051-17.704a66.319 66.319 0 00-1.597-.44c.52-.2 1.032-.406 1.536-.618zM528.4 206.648h84.248c19.08 0 34.067-5.686 45.364-17.266 11.332-11.615 16.996-25.762 16.996-42.502 0-8.966-3.076-17.69-9.595-26.476l-.006-.009-.006-.008c-6.181-8.71-15.183-14.638-27.086-17.756l-3.003-.786 2.897-1.114c18.326-7.049 26.431-21.649 26.431-36.219 0-16.611-5.673-30.157-15.669-39.555-10.003-9.404-24.428-14.741-42.083-14.741H528.4v196.432zm40.336-161.28h33.832c6.421 0 11.4 2.1 14.758 5.96 3.34 3.838 4.962 9.286 4.962 15.776 0 12.26-8.128 21.448-19.432 21.448h-34.12V45.368zm0 126.128V121.4h40.744c14.497 0 23.176 11.808 23.176 24.616 0 6.67-2 13.023-5.802 17.728-3.819 4.726-9.429 7.752-16.51 7.752h-41.608zm193.015.288c-17.538 0-31.24-12.825-31.24-31.816 0-18.12 13.696-31.528 31.24-31.528 17.532 0 31.528 13.395 31.528 31.528 0 18.997-13.708 31.816-31.528 31.816zm48.844 18.15c13.32-12.753 20.14-29.474 20.14-49.966 0-20.488-6.817-36.922-20.14-49.678-13.338-12.77-29.501-19.018-48.844-19.018s-35.506 6.247-48.844 19.018c-13.315 12.748-19.852 29.179-19.852 49.678 0 20.503 6.54 37.22 19.852 49.966 13.338 12.771 29.501 19.018 48.844 19.018s35.506-6.247 48.844-19.018zm77.311-116.782H841.25l44.352 61.632-52.992 72.864h46.368l28.8-41.184 28.512 41.184h46.368l-52.704-72.864 44.352-61.632h-46.368l-19.872 29.664-20.16-29.664zm40.566 1l-20.4 30.452-20.695-30.452h-44.175l43.635 60.635-52.263 71.861h43.883l29.325-41.935 29.032 41.935h43.887l-51.98-71.862 43.634-60.634h-43.883zm-1400.576-9.064c-8.352-11.808-19.872-17.568-35.136-17.568h-35.712v121.824h35.712c15.264 0 26.784-5.76 35.136-17.28 8.352-11.52 12.384-25.92 12.384-43.2 0-17.568-4.032-31.968-12.384-43.776zm73.202-41.76c0-12.96 11.231-23.328 25.056-23.328 13.535 0 24.48 10.368 24.48 23.328 0 12.96-10.945 23.616-24.48 23.616-13.825 0-25.056-10.656-25.056-23.616zm968.638 23.04v41.184h33.12c10.656 0 18.432-8.64 18.432-20.448 0-12.672-6.336-20.736-18.72-20.736h-32.832zm61.92 99.648c0-12.384-8.352-23.616-22.176-23.616h-39.744v48.096h40.608c13.536 0 21.312-11.52 21.312-24.48zm99.855-6.048c0 18.432 13.248 30.816 30.24 30.816 17.28 0 30.528-12.384 30.528-30.816 0-17.568-13.536-30.528-30.528-30.528-16.992 0-30.24 12.96-30.24 30.528zm100.224 0c0 20.736-6.912 37.728-20.448 50.688-13.536 12.96-29.952 19.296-49.536 19.296s-36-6.336-49.536-19.296c-13.536-12.96-20.16-29.952-20.16-50.688s6.624-37.44 20.16-50.4c13.536-12.96 29.952-19.296 49.536-19.296s36 6.336 49.536 19.296c13.536 12.96 20.448 29.664 20.448 50.4z" fill="#fff"/></g><defs><clipPath id="clip0"><path fill="#fff" d="M0 0h375v279H0z"/></clipPath></defs></svg>

<svg width="375" height="279" viewBox="0 0 375 279" fill="none" xmlns="http://www.w3.org/2000/svg">
<g clip-path="url(#clip0)">
<path opacity="0.3" fill-rule="evenodd" clip-rule="evenodd" d="M-543.952 170.344V46.52H-507.24C-491.673 46.52 -479.839 52.4207 -471.288 64.5105C-462.791 76.5229 -458.72 91.1374 -458.72 108.864C-458.72 126.302 -462.791 140.922 -471.294 152.651C-479.846 164.446 -491.675 170.344 -507.24 170.344H-543.952ZM-507.24 206.648C-479.547 206.648 -457.955 197.525 -442.334 179.348C-426.677 161.128 -418.672 137.757 -418.672 108.864C-418.672 79.9733 -426.676 56.5975 -442.339 38.0859C-457.964 19.6203 -479.557 10.216 -507.24 10.216H-584V206.648H-507.24ZM-507.24 207.648C-479.304 207.648 -457.416 198.432 -441.576 180C-425.736 161.568 -417.672 137.952 -417.672 108.864C-417.672 79.776 -425.736 56.16 -441.576 37.44C-457.416 18.72 -479.304 9.216 -507.24 9.216H-585V207.648H-507.24ZM-393.718 207.648V73.152H-353.975V207.648H-393.718ZM-354.975 206.648V74.152H-392.718V206.648H-354.975ZM-373.846 1C-387.189 1 -397.902 10.9888 -397.902 23.328C-397.902 35.6826 -387.173 45.944 -373.846 45.944C-360.831 45.944 -350.366 35.7048 -350.366 23.328C-350.366 10.9668 -360.815 1 -373.846 1ZM-192.514 153.504C-192.48 152.954 -192.446 152.412 -192.412 151.878C-192.162 147.937 -191.938 144.417 -191.938 141.12C-191.938 120.096 -198.562 103.104 -211.81 90.144C-224.77 76.896 -241.186 70.272 -260.77 70.272C-280.642 70.272 -297.346 76.608 -310.882 89.568C-324.418 102.528 -331.042 119.232 -331.042 139.968C-331.042 160.704 -324.418 177.696 -310.882 190.944C-297.346 203.904 -280.642 210.528 -260.77 210.528C-232.692 210.528 -212.434 201.59 -199.997 183.989C-199.817 183.734 -199.638 183.477 -199.461 183.218C-199.449 183.201 -199.438 183.185 -199.426 183.168L-228.514 163.296C-235.138 171.648 -244.93 175.968 -257.89 175.968C-273.367 175.968 -288.294 168.545 -290.851 154.504C-290.911 154.174 -290.964 153.841 -291.01 153.504H-192.514ZM-228.32 164.64C-235.155 172.8 -245.062 176.968 -257.89 176.968C-273.925 176.968 -289.883 169.075 -292.001 153.64L-292.157 152.504H-193.454C-193.439 152.273 -193.424 152.043 -193.41 151.815C-193.16 147.869 -192.938 144.383 -192.938 141.12C-192.938 120.326 -199.481 103.605 -212.51 90.8588L-212.518 90.8511L-212.525 90.8433C-225.284 77.801 -241.436 71.272 -260.77 71.272C-280.408 71.272 -296.857 77.5236 -310.191 90.2903C-323.506 103.038 -330.042 119.469 -330.042 139.968C-330.042 160.467 -323.505 177.189 -310.187 190.226C-296.846 202.997 -280.394 209.528 -260.77 209.528C-232.923 209.528 -213.022 200.68 -200.823 183.425L-228.32 164.64ZM-291.661 129.448L-291.414 128.247C-288.127 112.261 -274.08 104.407 -260.48 104.444C-246.88 104.481 -233.366 112.422 -231.267 128.317L-231.118 129.448H-291.661ZM-290.434 128.448H-232.258C-232.303 128.111 -232.353 127.778 -232.408 127.448C-237.286 98.244 -283.138 97.9746 -290.212 127.448C-290.291 127.778 -290.365 128.111 -290.434 128.448ZM-157.848 74.152H-182.328V103.832H-157.848V206.648H-120.104V103.832H-91.8798V74.152H-120.104V22.6H-157.848V74.152ZM-119.104 21.6V73.152H-90.8798V104.832H-119.104V207.648H-158.848V104.832H-183.328V73.152H-158.848V21.6H-119.104ZM33.7792 207.648H-8.26874V9.216H33.7792V207.648ZM32.7792 10.216H-7.26874V206.648H32.7792V10.216ZM109.701 73.152H69.669V207.648H109.701V136.512C109.701 118.368 118.053 109.152 134.469 109.152C148.581 109.152 157.797 118.656 157.797 135.936V207.648H197.829V127.296C197.829 89.568 179.685 70.272 148.581 70.272C133.438 70.272 118.295 78.4315 110.701 90.9761C110.351 91.5536 110.018 92.1403 109.701 92.736V73.152ZM196.829 206.648V127.296C196.829 108.578 192.327 94.5931 184.119 85.2979C175.929 76.0224 163.92 71.272 148.581 71.272C133.079 71.272 117.596 80.0232 110.584 93.2056L108.701 92.736V74.152H70.669V206.648H108.701V136.512C108.701 127.305 110.818 120.182 115.188 115.357C119.574 110.513 126.075 108.152 134.469 108.152C141.759 108.152 147.881 110.614 152.169 115.396C156.446 120.165 158.797 127.125 158.797 135.936V206.648H196.829ZM359.449 51.5055L381.842 125.128H337.976L359.449 51.5055ZM324.792 159.704H394.722L412.291 206.648H454.513L381.813 10.216H337.412L264.427 206.648H307.223L324.792 159.704ZM307.917 207.648H262.989L336.717 9.216H382.509L455.949 207.648H411.597L394.029 160.704H325.485L307.917 207.648ZM359.469 55.008L339.309 124.128H380.493L359.469 55.008ZM640.104 101.046C657.745 93.632 665.64 79.072 665.64 64.512C665.64 30.816 642.6 9.216 606.888 9.216H527.4V207.648H612.648C631.944 207.648 647.208 201.888 658.728 190.08C670.248 178.272 676.008 163.872 676.008 146.88C676.008 137.664 672.84 128.736 666.216 119.808C660.162 111.277 651.478 105.376 640.165 102.104C639.639 101.952 639.106 101.805 638.568 101.664C639.088 101.464 639.6 101.258 640.104 101.046ZM528.4 206.648H612.648C631.728 206.648 646.715 200.962 658.012 189.382C669.344 177.767 675.008 163.62 675.008 146.88C675.008 137.914 671.932 129.19 665.413 120.404L665.407 120.395L665.401 120.387C659.22 111.677 650.218 105.749 638.315 102.631L635.312 101.845L638.209 100.731C656.535 93.682 664.64 79.0822 664.64 64.512C664.64 47.901 658.967 34.3545 648.971 24.9566C638.968 15.5526 624.543 10.216 606.888 10.216H528.4V206.648ZM568.736 45.368H602.568C608.989 45.368 613.968 47.4675 617.326 51.3276C620.666 55.1663 622.288 60.6142 622.288 67.104C622.288 79.3636 614.16 88.552 602.856 88.552H568.736V45.368ZM568.736 171.496V121.4H609.48C623.977 121.4 632.656 133.208 632.656 146.016C632.656 152.686 630.656 159.039 626.854 163.744C623.035 168.47 617.425 171.496 610.344 171.496H568.736ZM761.751 171.784C744.213 171.784 730.511 158.959 730.511 139.968C730.511 121.848 744.207 108.44 761.751 108.44C779.283 108.44 793.279 121.835 793.279 139.968C793.279 158.965 779.571 171.784 761.751 171.784ZM810.595 189.934C823.915 177.181 830.735 160.46 830.735 139.968C830.735 119.48 823.918 103.046 810.595 90.2903C797.257 77.5194 781.094 71.272 761.751 71.272C742.408 71.272 726.245 77.5194 712.907 90.2903C699.592 103.038 693.055 119.469 693.055 139.968C693.055 160.471 699.595 177.188 712.907 189.934C726.245 202.705 742.408 208.952 761.751 208.952C781.094 208.952 797.257 202.705 810.595 189.934ZM887.906 73.152H841.25L885.602 134.784L832.61 207.648H878.978L907.778 166.464L936.29 207.648H982.658L929.954 134.784L974.306 73.152H927.938L908.066 102.816L887.906 73.152ZM928.472 74.152L908.072 104.604L887.377 74.152H843.202L886.837 134.787L834.574 206.648H878.457L907.782 164.713L936.814 206.648H980.701L928.721 134.786L972.355 74.152H928.472ZM-472.104 65.088C-480.456 53.28 -491.976 47.52 -507.24 47.52H-542.952V169.344H-507.24C-491.976 169.344 -480.456 163.584 -472.104 152.064C-463.752 140.544 -459.72 126.144 -459.72 108.864C-459.72 91.296 -463.752 76.896 -472.104 65.088ZM-398.902 23.328C-398.902 10.368 -387.671 0 -373.846 0C-360.311 0 -349.366 10.368 -349.366 23.328C-349.366 36.288 -360.311 46.944 -373.846 46.944C-387.671 46.944 -398.902 36.288 -398.902 23.328ZM569.736 46.368V87.552H602.856C613.512 87.552 621.288 78.912 621.288 67.104C621.288 54.432 614.952 46.368 602.568 46.368H569.736ZM631.656 146.016C631.656 133.632 623.304 122.4 609.48 122.4H569.736V170.496H610.344C623.88 170.496 631.656 158.976 631.656 146.016ZM731.511 139.968C731.511 158.4 744.759 170.784 761.751 170.784C779.031 170.784 792.279 158.4 792.279 139.968C792.279 122.4 778.743 109.44 761.751 109.44C744.759 109.44 731.511 122.4 731.511 139.968ZM831.735 139.968C831.735 160.704 824.823 177.696 811.287 190.656C797.751 203.616 781.335 209.952 761.751 209.952C742.167 209.952 725.751 203.616 712.215 190.656C698.679 177.696 692.055 160.704 692.055 139.968C692.055 119.232 698.679 102.528 712.215 89.568C725.751 76.608 742.167 70.272 761.751 70.272C781.335 70.272 797.751 76.608 811.287 89.568C824.823 102.528 831.735 119.232 831.735 139.968Z" fill="white"/>
</g>
<defs>
<clipPath id="clip0">
<rect width="375" height="279" fill="white"/>
</clipPath>
</defs>
</svg>
